assets/images/note.svg

<svg id="Layer_1" xmlns="http://www.w3.org/2000/svg" viewBox="0 0 25 32"><style>.st0{fill:#41449f}</style><path class="st0" d="M6.3 14.2h12.6v1H6.3v-1zm0 4.2h12.6v1H6.3v-1zm0 4.2h8.4v1H6.3v-1z"/><path class="st0" d="M15.7 3.7c-.2-1.5-1.5-2.6-3.1-2.6S9.7 2.2 9.5 3.7H0V31h25.2V3.7h-9.5zm-5.2 2.4V4.2c0-1.2.9-2.1 2.1-2.1s2.1.9 2.1 2.1v1.9l.5.3c1 .6 1.8 1.5 2.3 2.5H7.7C8.1 7.8 8.9 7 10 6.4l.5-.3zm13.6 23.8H1V4.7h8.4v.7c-1.6 1-2.8 2.7-3.1 4.6h12.6c-.3-1.9-1.5-3.5-3.1-4.5v-.8h8.4c-.1 0-.1 25.2-.1 25.2z"/></svg>

<?xml version="1.0" encoding="utf-8"?>
<!-- Generator: Adobe Illustrator 21.0.2, SVG Export Plug-In . SVG Version: 6.00 Build 0)  -->
<svg version="1.1" id="Layer_1" xmlns="http://www.w3.org/2000/svg" xmlns:xlink="http://www.w3.org/1999/xlink" x="0px" y="0px"
	 viewBox="0 0 25 32" style="enable-background:new 0 0 25 32;" xml:space="preserve">
<style type="text/css">
	.st0{fill:#41449F;}
</style>
<path class="st0" d="M6.3,14.2h12.6v1H6.3V14.2z M6.3,18.4h12.6v1H6.3V18.4z M6.3,22.6h8.4v1H6.3V22.6z"/>
<path class="st0" d="M15.7,3.7c-0.2-1.5-1.5-2.6-3.1-2.6S9.7,2.2,9.5,3.7H0v27.3h25.2V3.7H15.7L15.7,3.7z M10.5,6.1V4.2
	c0-1.2,0.9-2.1,2.1-2.1s2.1,0.9,2.1,2.1v1.9l0.5,0.3c1,0.6,1.8,1.5,2.3,2.5H7.7C8.1,7.8,8.9,7,10,6.4L10.5,6.1z M24.1,29.9H1V4.7
	h8.4v0.7C7.8,6.4,6.6,8.1,6.3,10h12.6c-0.3-1.9-1.5-3.5-3.1-4.5V4.7h8.4C24.1,4.7,24.1,29.9,24.1,29.9z"/>
</svg>
